Obsidian-SemiLight/actions/22s/zone-in.svg

<svg viewBox="0 0 22 22" xmlns="http://www.w3.org/2000/svg"><path d="m5 3v11.050781a2.5 2.5 0 0 0 -2 2.449219 2.5 2.5 0 0 0 2.5 2.5 2.5 2.5 0 0 0 2.5-2.5 2.5 2.5 0 0 0 -2-2.445312v-11.054688zm7.292969 3-2.792969 2.7929688-.7070312.7070312.7070312.707031 2.792969 2.792969.707031-.707031-2.292969-2.292969h6.292969v-1h-2-4.292969l2.292969-2.2929688zm-6.792969 9a1.5 1.5 0 0 1 1.5 1.5 1.5 1.5 0 0 1 -1.5 1.5 1.5 1.5 0 0 1 -1.5-1.5 1.5 1.5 0 0 1 1.5-1.5z" fill="#4d4d4d"/></svg>

<svg xmlns="http://www.w3.org/2000/svg" viewBox="0 0 22 22">
  <defs id="defs3051">
    <style type="text/css" id="current-color-scheme">
      .ColorScheme-Text {
        color:#4d4d4d;
      }
      </style>
  </defs>
 <path 
    style="fill:currentColor;fill-opacity:1;stroke:none" 
    d="M 5 3 L 5 14.050781 A 2.5 2.5 0 0 0 3 16.5 A 2.5 2.5 0 0 0 5.5 19 A 2.5 2.5 0 0 0 8 16.5 A 2.5 2.5 0 0 0 6 14.054688 L 6 3 L 5 3 z M 12.292969 6 L 9.5 8.7929688 L 8.7929688 9.5 L 9.5 10.207031 L 12.292969 13 L 13 12.292969 L 10.707031 10 L 17 10 L 17 9 L 15 9 L 10.707031 9 L 13 6.7070312 L 12.292969 6 z M 5.5 15 A 1.5 1.5 0 0 1 7 16.5 A 1.5 1.5 0 0 1 5.5 18 A 1.5 1.5 0 0 1 4 16.5 A 1.5 1.5 0 0 1 5.5 15 z "
    class="ColorScheme-Text"
    />  
</svg>
